X: 64
T: No_156_The_Thunder_Sounds_in_the_East.krn
N: Derived from No_156_The_Thunder_Sounds_in_the_East.krn
%%abc-version 2.0
%%abcx-abcm2ps-target-version 5.9.1 (29 Sep 2008)
%%abc-creator hum2abc beta
%%abcx-conversion-date 2019/03/15 08:37:56
%%humdrum-veritas 3814721676
%%humdrum-veritas-data 1194905410
%%linebreak <none>
%%barnumbers 0
L: 1/8
M: 3/4
K: D clef=bass
[K:clef=bass][M:3/4]FFF2E2 | 
D4-D3/B,/ ||  
[M:2/4]B,2A, z ||  
[M:3/4]E2E2E z ||  
[M:2/4]F2F2 | 
EEE2 | 
D2D3/A,/ | 
A,4 | 
F,3/E,/ E, z | 
A,2A,3/F,/ | 
B,2A,2 | 
A,4 | 
A,2z2 | 
E2E3/E/ | 
E2E2 | 
E3/D/B,2 | 
D2D2 | 
D3B, | 
B,/A,3/- A, z ||  
[M:3/4]B,2B,2B,2 ||  
[M:2/4]A,2E2 | 
D2DA, | 
A,4 ||  
[M:3/4]F,E,- E, zA,2 ||  
[M:2/4]A,F,B,2 | 
A,4- | 
A,2F,E, ||  
[M:3/4]A,6 | 
A,2z4 |]  



